X:1
T: Duchess of Athole
C:Niel Gow
R:Strathspey
Q: 128
K:A
M:4/4
L:1/16
|:A2|E3A cA3 B3A F4|EA3 cA3 e3A c4|d3f ca3 B3A F4|E3A c3A B4A4|
E3A cA3 B3A F4|EA3 cA3 e3A c4|d3f ca3 B3A F4|E3A c3A B4A4|
e3c a3c dcBA F4|e3c a3c ecef a4|f3e a3c dcBA F4|E3A c3A B4A4|
e3c a3c dcBA F4|e3c a3c ecef a4|f3e a3c dcBA F4|E3A c3A B4A2:|
